X:1
T:Title
%%score { 1 | 2 }
L:1/8
M:4/4
K:Ab
V:1 treble nm="Grand Piano"
V:2 bass 
V:1
 z4 z2[Q:1/4=100] [CE][CE] | [CA]2 [CA]4 [Ec][DB] | [CA]2 [CE]4 [EA][Ec] | B3 E G2 d2 | %4
[M:3/4] [Ec]6 |[M:1/4] [CE][CE] |[M:4/4] [DF]2 [FA]2 [EG]2 [DF]2 | [DF]2 [CE]4 [EA][EB] | %8
 c3 e c2 B2 |[M:3/4] [CA]6 |[M:1/4] [CA]>[EG] |[M:4/4] F2 F2 A3 F | [DF]2 [CE]4 [EA]B | %13
 c3 c d2 c2 |[M:3/4] B6 |[M:1/4] [CA][DB] |[M:4/4] [Ec]2 [CE]2 [DB]3 [EA] | [EG]2 [DF]4 [FA][=EB] | %18
 [Ec]3 [Ae] [Ec]2 [DB]2 |[M:3/4] [CA]6 |] %20
V:2
 z4 z2 [A,,A,][A,,A,] | [A,,A,]2 [A,,A,]4 [A,,A,][A,,A,] | [A,,E,]2 [A,,A,]4 [C,A,][A,,A,] | %3
 [E,G,D]3 [E,G,] [E,B,E]2 [E,G,E]2 |[M:3/4] [A,,A,]6 |[M:1/4] [A,,A,][A,,A,] | %6
[M:4/4] [D,A,]2 [D,A,]2 [D,A,]2 [D,A,]2 | [A,,A,]2 [A,,A,]4 [C,A,][D,A,] | %8
 [E,A,E]3 [E,CE] [E,A,E]2 [E,G,D]2 |[M:3/4] [A,,A,]6 |[M:1/4] [A,,A,]>[C,A,] | %11
[M:4/4] [D,A,D]2 [D,A,D]2 [D,F,D]3 [D,A,D] | [A,,A,]2 [A,,A,]4 [C,A,][E,G,E] | %13
 [A,E]3 [A,E] [G,B,E]2 [A,E]2 |[M:3/4] [E,G,E]6 |[M:1/4] [A,,A,][A,,A,] | %16
[M:4/4] [A,,A,]2 [A,,A,]2 [A,,A,]3 [C,A,] | [D,A,]2 [D,A,]4 [D,A,][D,A,] | %18
 [E,A,]3 [E,C] [E,A,]2 [E,G,]2 |[M:3/4] [A,,A,]6 |] %20

